X: 1
T: Linnen Hall
O: 1782
R: jig
Z: 2010 John Chambers <jc:trillian.mit.edu>
S: printed MS of unknown origin
B: Aird (Selections of Scotch, English, Irish and Foreign Airs) 1782 v.2 #127 p.46
B: Raven (English Country Dance Tunes) 1984 p.31
B: Williamson (English, Welsh, Scottish and Irish Fiddle Tunes) 1976 p.22
M: 6/8
L: 1/8
K: G
D \
| "G"G2G "D7"A2A | "G"B2c dBG | "Am"E2E c2B  | "D7"ABG FED \
| "G"GFG "D7"AGA | "G"B2c dBG | "Am"EcB "D7"AGF  | "G"G2 G3 :|
B \
|"Bm"d2d e2d | "C"efg "G"dBG | "G"dcB "C"edc  | "G"dcB "D7"[A3D3]  \
| "G"d2d "C"efg | "Em"gba gfg | "Em"egf "A7"ed^c | "D"d3 "D7"d2 |]
D \
|"G"GFG "D7"AGA | "G"B2c dBG | "Am"EDE c2B  | "D7"ABG FED \
| "G"G2D "D7"A2D | "G"B2c "G7"dBG | "C"EcB "D7"AGF  | "G"G3 G2 |]
